X: 30048
T: Off To The Hunt
R: jig
M: 6/8
K: Edorian
|:~E3 EFA|BdB BAF|ADD FED|ADD FED|
~E3 EFA|BAB dfe|BAG FGA|1 BGE EBG:|2 BAB c=d^d||
|:e^de ~E3|e^de EFA|d2A FED|AFE DEF|
~G3 A^GA|BAB dfe|BAG FGA|1 BAB c=d^d:|2 BGE EBG||

